dist/images/logo-etsy.svg

<svg width="70" height="33" viewBox="0 0 70 33" fill="none" xmlns="http://www.w3.org/2000/svg">
<path d="M8.15634 11.9271V2.671C8.15634 2.32802 8.19043 2.12232 8.77134 2.12232H16.5922C17.9585 2.12232 18.7099 3.28812 19.2565 5.48203L19.7005 7.23073H21.0323C21.2711 2.26 21.4759 0.100098 21.4759 0.100098C21.4759 0.100098 18.129 0.477087 16.1481 0.477087H6.14172L0.778809 0.305599V1.74553L2.58931 2.08831C3.85298 2.32843 4.15977 2.60237 4.26305 3.76837C4.26305 3.76837 4.36572 7.19651 4.36572 12.8534C4.36572 18.5095 4.26305 21.9038 4.26305 21.9038C4.26305 22.9321 3.85298 23.3091 2.58931 23.5498L0.778809 23.8928V25.3319L6.14172 25.1609H15.0899C17.1049 25.1609 21.7839 25.3319 21.7839 25.3319C21.8859 24.0975 22.5695 18.5095 22.672 17.8932H21.4083L20.0762 20.9443C19.0173 23.3435 17.4807 23.5152 15.7727 23.5152H10.6835C8.97566 23.5152 8.15593 22.8295 8.15593 21.3555V13.5389C8.15593 13.5389 11.8786 13.5389 13.1761 13.642C14.1326 13.7108 14.7129 13.985 15.0207 15.3219L15.4308 17.1046H16.8986L16.7965 12.6131L17.0013 8.08817H15.5331L15.0552 10.0764C14.7474 11.379 14.5429 11.6196 13.2106 11.7562C11.7081 11.9281 8.15573 11.8937 8.15573 11.8937V11.9277H8.15634V11.9271ZM28.4092 3.63109C27.931 5.75657 27.4528 7.40201 25.7792 8.49917C24.7548 9.18451 23.7299 9.42423 23.3207 9.45865V10.7613H26.3601V21.2859C26.3601 24.2346 28.3072 25.6747 30.9025 25.6747C32.9177 25.6747 35.0007 24.8177 35.7182 23.0346L35.0007 22.1089C34.659 22.692 33.5668 23.5488 32.2005 23.5488C30.698 23.5488 29.8783 22.5201 29.8783 19.9152V10.6249L34.9334 11.0023L35.2063 8.67046L29.8785 8.87636V3.66511L28.4092 3.63109ZM39.202 19.8195L37.9043 19.8537C37.9724 20.6077 38.0069 21.5679 38.0069 22.4592C38.0069 23.3849 37.9728 24.2419 37.9043 24.6531C37.9043 24.6531 40.5 25.6122 43.1298 25.6122C46.6818 25.6122 49.5168 23.8981 49.5168 20.5384C49.5168 14.7797 40.9101 15.6369 40.9101 11.7623C40.9101 10.1513 42.3444 9.53401 43.9154 9.53401C45.145 9.53401 46.1695 9.97963 46.3744 10.6316L47.2284 13.2027L48.4923 13.1343C48.595 11.7627 48.6629 10.1857 48.8681 8.9175C47.7748 8.43746 45.4863 8.16271 44.053 8.16271C40.7051 8.16271 38.0075 9.63706 38.0075 12.9283C38.0075 18.6533 46.4089 17.4877 46.4089 21.705C46.4089 23.2128 45.4863 24.2757 43.4035 24.2757C41.4914 24.2757 40.5347 23.2818 40.1597 22.2871L39.202 19.8195ZM59.7871 23.78C57.8098 29.324 55.3894 30.7603 53.2078 30.7603C52.2868 30.7603 51.8441 30.3493 51.7071 29.7002L51.1958 27.0303L49.7637 27.0988C49.491 28.6731 49.2183 30.419 48.8437 31.8558C49.6961 32.5051 51.1272 32.8481 52.2527 32.8481C54.6056 32.8481 58.1847 32.5396 61.457 24.7378L66.9461 11.7346C67.3896 10.6735 67.5594 10.5709 68.855 10.0572L69.571 9.78411V8.58634L66.3321 8.75742L62.855 8.58634V9.78411L63.7408 10.0572C64.6269 10.3316 65.0368 10.6735 65.0368 11.2896C65.0368 11.5974 64.9341 11.9055 64.7633 12.3841C64.2519 13.6854 61.0814 21.4187 60.23 23.0617L61.0812 22.7531C59.5809 19.0233 57.2979 12.7947 56.9566 11.7348C56.8884 11.5293 56.8543 11.3583 56.8543 11.1864C56.8543 10.6391 57.2293 10.1941 58.0476 10.0232L59.1727 9.78432V8.58654L54.5017 8.75763L50.7859 8.58654V9.78432L51.3997 9.98941C52.2519 10.2631 52.4566 10.5029 52.9679 11.7004C55.7966 18.2025 57.127 21.7608 58.9331 26.4152L59.7871 23.78Z" fill="#F27224"/>
</svg>

<svg width="70" height="33" viewBox="0 0 70 33" fill="none" xmlns="http://www.w3.org/2000/svg"><path d="M8.156 11.927V2.671c0-.343.034-.549.615-.549h7.821c1.367 0 2.118 1.166 2.665 3.36l.444 1.749h1.331c.24-4.971.444-7.13.444-7.13s-3.347.376-5.328.376H6.142L.779.306v1.44l1.81.342c1.264.24 1.57.514 1.674 1.68 0 0 .103 3.429.103 9.085 0 5.656-.103 9.05-.103 9.05 0 1.03-.41 1.406-1.674 1.647l-1.81.343v1.439l5.363-.171h8.948c2.015 0 6.694.17 6.694.17.102-1.233.786-6.822.888-7.438h-1.264l-1.332 3.051c-1.059 2.4-2.595 2.571-4.303 2.571h-5.09c-1.707 0-2.527-.686-2.527-2.16V13.54s3.723 0 5.02.103c.957.069 1.537.343 1.845 1.68l.41 1.783h1.468l-.102-4.492L17 8.088h-1.468l-.478 1.988c-.308 1.303-.512 1.544-1.844 1.68-1.503.172-5.055.138-5.055.138v.034zM28.41 3.631c-.478 2.126-.956 3.771-2.63 4.868-1.024.686-2.05.925-2.458.96v1.302h3.04v10.525c0 2.949 1.946 4.389 4.541 4.389 2.016 0 4.099-.857 4.816-2.64l-.717-.926c-.342.583-1.434 1.44-2.8 1.44-1.503 0-2.323-1.029-2.323-3.634v-9.29l5.055.377.273-2.332-5.328.206v-5.21L28.41 3.63zM39.202 19.82l-1.298.034c.068.754.103 1.714.103 2.605 0 .926-.034 1.783-.103 2.194 0 0 2.596.96 5.226.96 3.552 0 6.387-1.715 6.387-5.075 0-5.758-8.607-4.901-8.607-8.776 0-1.61 1.434-2.228 3.005-2.228 1.23 0 2.255.446 2.46 1.098l.853 2.57 1.264-.068c.103-1.371.17-2.948.376-4.216-1.093-.48-3.382-.755-4.815-.755-3.348 0-6.045 1.474-6.045 4.765 0 5.725 8.4 4.56 8.4 8.777 0 1.508-.922 2.57-3.005 2.57-1.912 0-2.868-.993-3.243-1.988l-.958-2.467zm20.585 3.96c-1.977 5.544-4.398 6.98-6.58 6.98-.92 0-1.363-.41-1.5-1.06l-.511-2.67-1.432.069c-.273 1.574-.546 3.32-.92 4.757.852.65 2.283.992 3.409.992 2.353 0 5.932-.308 9.204-8.11l5.49-13.003c.443-1.061.612-1.164 1.908-1.678l.716-.273V8.586l-3.239.171-3.477-.17v1.197l.886.273c.886.275 1.296.617 1.296 1.233 0 .307-.103.616-.274 1.094-.511 1.301-3.682 9.035-4.533 10.678l.851-.309c-1.5-3.73-3.783-9.958-4.124-11.018a1.709 1.709 0 0 1-.103-.549c0-.547.375-.992 1.194-1.163l1.125-.239V8.587l-4.671.17-3.716-.17v1.197l.614.205c.852.274 1.057.514 1.568 1.711 2.829 6.503 4.159 10.06 5.965 14.715l.854-2.635z" fill="#F27224"/></svg>
